Papirus/64x64/apps/copy-com.svg

<?xml version="1.0" encoding="UTF-8" standalone="no"?>
<svg xmlns="http://www.w3.org/2000/svg" height="64" viewBox="0 0 64 64" width="64" version="1.1">
 <g style="opacity:0.2" transform="matrix(0.16011426,0,0,0.15725625,3.3693097,11.546481)">
  <path transform="matrix(12.491,0,0,12.718,-21.043,-67.063)" d="M 27,5 26.564,5.6699 24,15.5 21.008,14.219 20.5,15 23.125,16.125 24.049,16.311 27,5 Z M 8.5,13 3.5469,13.762 2,15 8.5,14 12.5,27 15,25.5 30,27 29.445,25.945 15,24.5 12.5,26 8.5,13 Z"/>
  <path transform="matrix(12.491,0,0,12.718,-21.043,-67.063)" d="M 20.771,16.416 14.5,20 13.338,17.289 13,17.5 l 1.5,3.5 7,-4 -0.72852,-0.58398 z"/>
 </g>
 <g transform="matrix(0.16011426,0,0,0.15725625,3.3693097,10.546478)">
  <path style="fill:#1ba9cb" d="M 135.1,276.33 85.132,110.99 3.94,123.71 66.395,72.837 103.87,85.555 153.83,212.735 260,149.144 l 31.228,6.3591 62.455,120.82 -187.37,-19.077 z m 99.92,-152.62 81.2,-127.18 -37.48,146.26 z"/>
  <path style="fill:#e65902" d="m 160.08,200.02 -18.737,-44.514 49.964,-31.795 24.982,0 31.228,25.436 z"/>
 </g>
 <path style="opacity:0.2;fill:#ffffff" d="M 54 10 L 41 30 L 41.507812 30.21875 L 53.564453 11.669922 L 54 10 z M 14 22 L 4 30 L 5.546875 29.763672 L 14 23 L 20 25 L 28 45 L 28.796875 44.53125 L 29 45 L 43 37 L 42.40625 36.527344 L 45 35 L 46.25 35.25 L 48 36 L 48.097656 35.623047 L 50 36 L 59.445312 53.945312 L 60 54 L 50 35 L 48.097656 34.623047 L 48 35 L 46.25 34.25 L 45 34 L 42.40625 35.527344 L 43 36 L 29 44 L 28.796875 43.533203 L 28 44 L 20 24 L 14 22 z M 34 30 L 26 35 L 26.337891 35.789062 L 34 31 L 38 31 L 42.269531 34.416016 L 43 34 L 38 30 L 34 30 z"/>
</svg>

<?xml version="1.0" encoding="UTF-8" standalone="no"?>
<svg xmlns="http://www.w3.org/2000/svg" height="64" width="64" version="1.1" viewBox="0 0 64 64">
 <g style="opacity:.2" transform="matrix(.16011 0 0 .15726 3.3693 11.546)">
  <path transform="matrix(12.491,0,0,12.718,-21.043,-67.063)" d="m27 5-.436.6699-2.564 9.8301-2.992-1.281-.508.781 2.625 1.125.924.186 2.951-11.311zm-18.5 8-4.9531.762-1.5469 1.238 6.5-1 4 13 2.5-1.5 15 1.5-.555-1.055-14.445-1.445-2.5 1.5-4-13z"/>
  <path transform="matrix(12.491,0,0,12.718,-21.043,-67.063)" d="m20.771 16.416-6.271 3.584-1.162-2.711-.338.211l1.5 3.5 7-4-.72852-.58398z"/>
 </g>
 <g transform="matrix(.16011 0 0 .15726 3.3693 10.546)">
  <path style="fill:#1ba9cb" d="m135.1 276.33-49.968-165.34-81.192 12.72 62.455-50.873 37.475 12.718 49.96 127.18 106.17-63.6l31.228 6.3591 62.455 120.82-187.37-19.077zm99.92-152.62 81.2-127.18-37.48 146.26z"/>
  <path style="fill:#e65902" d="m160.08 200.02-18.737-44.514 49.964-31.795h24.982l31.228 25.436z"/>
  <path style="opacity:.2;stroke-width:.15868;fill:#ffffff" d="m54 10l-13 20 .508.219 12.056-18.549.436-1.67zm-40 12l-10 8 1.5469-.238 8.4531-6.762 6 2 8 20 16.998-10 5.002 1 9.443 17.945.555.055-9.998-19-5.002-1-16.998 10-8-20-6-2zm20 8l-8 5 .338.789 7.662-4.789h4l4.271 3.416.729-.416-5-4h-4z" transform="matrix(6.2455 0 0 6.359 -21.043 -67.066)"/>
 </g>
</svg>
